maoyan.svg

<?xml version="1.0" encoding="UTF-8"?>
<svg viewBox="0 0 9 9" version="1.1" xmlns="http://www.w3.org/2000/svg" xmlns:xlink="http://www.w3.org/1999/xlink">
    <title>Maoyan</title>
    <g id="Page-1" stroke="none" stroke-width="1" fill="none" fill-rule="evenodd">
        <path d="M6.94872594,6.23885123 L6.99817425,6.24775429 C7.1525021,6.27554405 7.35725476,6.34327384 7.56807115,6.43622316 L7.57446134,6.43904752 C7.61641165,6.45763451 7.67073812,6.48347456 7.725221,6.51031527 L7.74553368,6.52036462 C7.85423316,6.57436732 7.95741115,6.62926271 7.95741115,6.63498486 C7.9573323,6.64191384 7.86524647,6.76891594 7.80120485,6.85042665 C7.20887124,7.60432846 6.37222,8.11924834 5.43842736,8.30461057 C4.51464956,8.48798559 3.5615013,8.34308982 2.73993361,7.89439137 C2.51455138,7.77129804 2.2894099,7.61833087 2.0986857,7.4587061 C1.87911629,7.27493714 1.66653714,7.05510948 1.49480088,6.83422256 C1.48078106,6.81618909 1.46583396,6.79646334 1.45108142,6.77662793 L1.44706367,6.77121674 L1.43571086,6.75582829 C1.38944414,6.6928193 1.34917339,6.63434642 1.35150277,6.63204782 C1.36504881,6.61865777 1.60772451,6.49588095 1.72317152,6.44390965 L1.7266306,6.44235662 C1.93021128,6.35120898 2.14637885,6.27883445 2.30501772,6.24863037 L2.33297211,6.24343193 C2.3640924,6.23779188 2.36331042,6.23915522 2.367594,6.24715463 L2.36786722,6.24760834 C2.37321627,6.25576986 2.42346915,6.30374326 2.47595796,6.35190305 L2.4917946,6.36637665 C2.52376266,6.39547716 2.55497136,6.42317183 2.57579165,6.44051823 C3.2114456,6.97007957 4.09065995,7.22575583 4.98977268,7.14251617 C5.72321146,7.07460954 6.41294471,6.76818934 6.88734998,6.29948746 L6.94872594,6.23885123 Z M7.2592356,5.84321124 L7.28749754,5.79827624 C7.29574983,5.78530067 7.29805872,5.78416303 7.31290837,5.78575784 L7.39281091,5.79485819 C7.62788202,5.82164694 7.89555723,5.87703722 8.19631223,5.96112671 L8.31553382,5.99461238 L8.30447722,6.01938249 C8.28838868,6.05541669 8.2573367,6.11861983 8.2250566,6.18230117 L8.209912,6.21203762 C8.16646182,6.29695286 8.1246637,6.37521073 8.11786313,6.38201366 C8.11743529,6.3824399 8.11214972,6.38016683 8.10342859,6.37591603 L8.0968738,6.37267324 L8.08826918,6.3683113 C8.07601914,6.3620373 8.06079452,6.35399915 8.04420628,6.34501423 L8.03410259,6.33951621 C7.78501743,6.20335376 7.49359842,6.07897598 7.25768631,6.00803856 L7.23776122,6.00206753 C7.20255192,5.99141798 7.17429963,5.98213918 7.17251927,5.98056621 C7.17140449,5.97958588 7.17408145,5.97352896 7.17917289,5.96483883 L7.18094022,5.96187654 C7.18437316,5.95621843 7.18865457,5.94967383 7.19346824,5.94280375 L7.19845077,5.93576176 C7.20036346,5.93305262 7.20223367,5.93038629 7.20409196,5.92771579 L7.21189949,5.91636237 C7.22384675,5.89877721 7.23703126,5.87838399 7.2592356,5.84321124 L7.2592356,5.84321124 Z M2.00518607,5.78440487 C2.00983754,5.78395869 2.0223845,5.79988087 2.04209712,5.83123131 L2.04660073,5.83839838 C2.06141843,5.86186496 2.08295376,5.89476309 2.09949152,5.91923419 L2.11074684,5.93576523 C2.12696484,5.95978947 2.13846588,5.97960393 2.13685418,5.98094701 L2.13657062,5.98113334 C2.13333293,5.98296523 2.11002568,5.99037192 2.08336579,5.99802216 C1.95911205,6.03367802 1.77145029,6.10335127 1.61643247,6.1712628 L1.60625984,6.17573756 C1.51923358,6.21417924 1.34543951,6.30037619 1.26165953,6.34660013 L1.25235837,6.35172497 C1.21944429,6.36968876 1.19217093,6.38240107 1.19036352,6.38049917 C1.17657559,6.36598027 1.0441196,6.10843935 1.00809153,6.02610137 L0.994448055,5.9949144 L1.06289744,5.97488908 C1.37350842,5.88400719 1.69600642,5.81775698 1.97410528,5.78765799 L2.00518607,5.78440487 Z M5.10821751,3.94996826 C5.36502308,3.61768804 5.8051555,3.48569602 6.20156927,3.62208705 C6.51588579,3.73023252 6.75499466,3.99325359 6.83413735,4.31791325 C6.86930312,4.46216557 6.87025733,4.62286274 6.83680301,4.76648038 C6.74188082,5.17401203 6.40048743,5.47545107 5.98245508,5.52084617 L5.97565621,5.52154674 C5.95309131,5.52375646 5.92482415,5.52546403 5.90978615,5.52546403 L5.87961905,5.52546403 L5.87663385,5.56814094 C5.86603685,5.7194842 5.80262553,5.86445 5.69971071,5.97259547 C5.60445147,6.0726958 5.4945464,6.13447883 5.35692978,6.16529375 C5.29619726,6.17888908 5.16203419,6.18004464 5.10368282,6.16747356 C5.01330407,6.14799975 4.93396879,6.11518012 4.86236351,6.06764898 C4.80781215,6.03143567 4.72216665,5.94603412 4.68686919,5.89286119 L4.67091501,5.86853614 C4.66445958,5.85878089 4.65947891,5.85139634 4.65760891,5.84883784 L4.65724274,5.84834647 C4.65713848,5.84821027 4.65705225,5.84810199 4.65698471,5.84802267 C4.65545049,5.84621651 4.64281366,5.86178313 4.62810951,5.88339784 L4.62461592,5.88858981 C4.53101561,6.02918724 4.38629493,6.12682763 4.21450177,6.16529375 C4.15365107,6.17891534 4.0196018,6.17999212 3.96114976,6.16732473 C3.86978616,6.14752703 3.79158893,6.11521513 3.7199355,6.06764898 C3.66618885,6.03196671 3.57792425,5.94415733 3.5437302,5.89234538 C3.47791584,5.79262148 3.43966858,5.6809568 3.43281839,5.56853488 L3.43019649,5.52546403 L3.4000469,5.52546403 C3.2721825,5.52546403 3.11241329,5.48471743 2.9828637,5.41906503 C2.88521456,5.3695817 2.80402776,5.30916433 2.72211436,5.22501422 C2.41136956,4.90580407 2.35799935,4.40782802 2.59424559,4.0319517 C2.7545882,3.77683133 3.02294498,3.60685905 3.31771329,3.57371988 C3.36581783,3.56830976 3.47799025,3.56819596 3.52689142,3.57350978 C3.75212045,3.59796474 3.95724975,3.69604722 4.11662502,3.85548815 C4.26336355,4.00228359 4.35295442,4.17576194 4.39246667,4.3896017 C4.40375964,4.45072379 4.40607951,4.59493234 4.39692695,4.6668484 C4.37226189,4.86063659 4.29315422,5.03839576 4.16571441,5.18641678 C4.06853865,5.29928155 3.95146166,5.38513231 3.81098697,5.44651429 L3.80072127,5.45097093 C3.74014566,5.47745775 3.71438412,5.49536464 3.69338361,5.52530997 L3.69247345,5.52661959 C3.6658737,5.56524329 3.65805617,5.59115145 3.6558501,5.64802336 C3.65340767,5.71103198 3.66052486,5.74428933 3.6886391,5.80122252 C3.71366746,5.85189642 3.75593292,5.8971427 3.81232772,5.93363036 L3.82016361,5.93867451 C3.86128231,5.96499046 3.87823391,5.97309909 3.92205771,5.98854569 C4.12028429,6.05840889 4.34666888,5.98997263 4.4738767,5.82172932 L4.47559224,5.81942568 C4.50396908,5.78077238 4.54937158,5.69264021 4.54693082,5.68045781 C4.54609388,5.6762774 4.53498137,5.66964768 4.51892014,5.66368632 L4.51744654,5.6631463 C4.48356327,5.65089037 4.43496849,5.61848656 4.41352061,5.59384338 C4.39261549,5.56982175 4.37373698,5.529526 4.37022653,5.50144678 C4.361643,5.43272164 4.41051353,5.35990827 4.49213804,5.31979635 C4.54691435,5.29287722 4.58624692,5.28387636 4.65152337,5.28357898 L4.65492309,5.28357131 C4.72244015,5.28357131 4.76198742,5.29241309 4.81833407,5.32010712 C4.88276526,5.3517712 4.92556472,5.40302726 4.93727352,5.46253857 C4.94166814,5.48488376 4.94136175,5.49344103 4.93533008,5.51699868 C4.93139067,5.53236675 4.92294721,5.55384965 4.91656974,5.56473554 C4.89253061,5.6057579 4.84059172,5.64565971 4.78536999,5.66553183 L4.7582406,5.67529281 L4.76916151,5.70433499 C4.78960704,5.75868568 4.8262085,5.8160697 4.87011976,5.86262036 C5.03459875,6.03697414 5.29950198,6.06587625 5.50056494,5.93140241 C5.59577165,5.86772408 5.64832334,5.78088204 5.65400046,5.67784467 C5.65829952,5.59986473 5.63966686,5.54567122 5.59323377,5.50137163 L5.59154335,5.49977472 C5.56999926,5.47962478 5.55651658,5.47126097 5.51902904,5.4554599 L5.51450606,5.45356548 C5.44995669,5.42668121 5.40170771,5.40086059 5.34213074,5.36130894 C5.10739899,5.20547914 4.95617829,4.96494333 4.91284919,4.67849154 C4.90288687,4.61262903 4.90285623,4.48537744 4.91278791,4.41608327 C4.93720786,4.24569079 5.00543401,4.08296264 5.10821751,3.94996826 Z M7.5640802,5.2760462 L7.58355925,5.2760462 C7.60065322,5.27611753 7.62175288,5.27633466 7.64774448,5.276685 L7.70895764,5.27760037 C7.79817691,5.2790562 7.86370892,5.28079473 7.92696507,5.28382163 L7.93872689,5.2844006 L7.95046681,5.28501082 L7.96775033,5.28596767 C8.01683972,5.28878315 8.06733626,5.29250465 8.12924055,5.29760186 L8.13473255,5.2980552 C8.17065022,5.30102788 8.20962408,5.30467361 8.2486567,5.30862942 L8.27142216,5.3109707 C8.40191337,5.3245845 8.52651659,5.3408871 8.53245069,5.34622102 C8.53715435,5.35045194 8.50603461,5.46565595 8.46859153,5.58464688 L8.46608628,5.59258405 L8.46102734,5.6084638 L8.45591677,5.62430375 L8.42026514,5.73409064 L8.34753056,5.71273031 C8.18276248,5.66434218 7.93765576,5.606122 7.74930754,5.57058213 L7.7349859,5.56790402 C7.71194194,5.56363549 7.68565343,5.55895467 7.65853404,5.55425503 L7.6365229,5.55046729 L7.62512482,5.54852609 L7.58340728,5.54153485 C7.51547293,5.53029699 7.45660955,5.52129834 7.44700725,5.52109058 L7.44668886,5.52108691 C7.44141444,5.52108691 7.43585987,5.51908657 7.43434977,5.51663538 C7.43289353,5.51428268 7.43935707,5.49279627 7.44886075,5.46817306 L7.45133459,5.46181274 C7.45699431,5.44715577 7.46464231,5.4260805 7.47225246,5.40432754 L7.47422285,5.3986777 L7.47780481,5.38831455 C7.48017137,5.38142709 7.48248434,5.37461265 7.48467932,5.36805376 L7.48759328,5.35928535 L7.50622258,5.30230304 L7.51292762,5.28207733 C7.51313636,5.28146475 7.51329096,5.28101904 7.5133874,5.28075245 L7.51351964,5.28046758 C7.51517151,5.27757359 7.52587073,5.27621581 7.5640802,5.2760462 L7.5640802,5.2760462 Z M1.53261066,5.27810955 L1.54212832,5.2778972 L1.56493282,5.27744874 C1.68368635,5.27533183 1.79498747,5.27673597 1.79644565,5.28143966 L1.79980373,5.29217938 C1.80522381,5.30937147 1.81151482,5.3286971 1.81803797,5.34828226 L1.82129457,5.35802409 C1.83510075,5.39917456 1.84946284,5.44010167 1.85848693,5.46351467 L1.86021323,5.46803419 C1.86982599,5.49344135 1.87645914,5.5150798 1.87519002,5.51713437 C1.87392529,5.51918184 1.86917486,5.52087646 1.8643617,5.52106875 L1.86345934,5.52108691 C1.83123657,5.52108691 1.55218354,5.57050358 1.39676752,5.60365531 L1.3851514,5.60615442 C1.3299569,5.61814023 1.25637092,5.63568015 1.18295287,5.65397087 L1.14514132,5.66346048 C1.01670435,5.69593021 0.898732944,5.72816289 0.893100246,5.733793 C0.890062525,5.73683072 0.868715317,5.67622951 0.83821993,5.57798946 L0.83242662,5.5592144 C0.796371435,5.44164308 0.772674327,5.3505397 0.777198517,5.346186 C0.781293341,5.34224283 0.88125166,5.32850375 0.987994783,5.31641134 L1.00663768,5.31432407 L1.02263893,5.31257256 C1.04662588,5.30997526 1.07047169,5.30752224 1.09317757,5.3053418 L1.11488392,5.30329631 C1.24128931,5.29153802 1.33522442,5.28519507 1.44868356,5.28069992 C1.47561965,5.27963156 1.50406341,5.27876911 1.53261066,5.27810955 Z M3.38555863,3.98181618 C3.33631605,3.99823037 3.29559133,4.03522141 3.27753572,4.07993367 L3.26737643,4.10508898 L3.26737643,4.98926698 L3.27753572,5.01442228 C3.29171758,5.04954866 3.32458099,5.08412352 3.36065721,5.10187273 L3.36508641,5.10403189 C3.38629162,5.11425049 3.39415263,5.11596705 3.4232391,5.11617795 L3.43143959,5.11620342 L3.44121625,5.11615959 C3.47018384,5.11585553 3.47809448,5.11375257 3.49930682,5.10333469 C3.53274363,5.0869205 3.56450401,5.05515575 3.57951752,5.02312837 L3.59128322,4.99802121 L3.59128322,4.09633474 L3.57951752,4.07122758 C3.56450838,4.03920458 3.53016989,4.00482232 3.49888662,3.99050476 C3.46919662,3.97690943 3.41316075,3.97261547 3.38555863,3.98181618 Z M5.83143135,3.98205692 C5.7874807,3.99640074 5.75346173,4.02571868 5.73075324,4.06882017 L5.71856296,4.09195762 L5.71856296,5.00239833 L5.7334014,5.02976408 C5.75144826,5.06303894 5.77874397,5.08902589 5.81190502,5.10451214 L5.81578656,5.10629062 C5.8337392,5.11433334 5.84384945,5.11597518 5.87406926,5.11610336 L5.88250023,5.11610336 C5.91489798,5.11596957 5.92421103,5.11410538 5.94475058,5.10451214 C5.97791163,5.08902589 6.00520734,5.06303894 6.0232542,5.02976408 L6.03809264,5.00239833 L6.03809264,4.09195762 L6.0232542,4.06459187 C5.9935073,4.0097422 5.9457792,3.9796495 5.88489348,3.97735589 C5.86348499,3.9765505 5.84271118,3.97838014 5.83143135,3.98205692 Z M4.42950147,0.391322518 L4.43609999,0.390953633 C4.48624457,0.388382324 4.58579811,0.3878564 4.68699993,0.388862947 L4.72409034,0.389299306 C4.82495133,0.390670044 4.92162628,0.393498813 4.96639766,0.397249304 L4.96788709,0.397376074 C5.39931342,0.434682257 5.77443251,0.523165714 6.15627484,0.677695517 C7.29885168,1.14008122 8.17157913,2.11525952 8.50447653,3.30155064 C8.58413218,3.58540293 8.63572239,3.90450838 8.64750098,4.1856653 L8.64844966,4.20869069 C8.65021484,4.2480965 8.65221446,4.26735479 8.6537261,4.25866635 L8.65387995,4.25778657 C8.65528886,4.25118855 8.65650971,4.29903936 8.65674907,4.36745163 L8.65674907,4.38318611 L8.65674907,4.41230393 C8.65642782,4.46998042 8.65527824,4.50978175 8.65384648,4.50574982 L8.65379756,4.50559535 C8.65204233,4.499463 8.64935041,4.52927556 8.64767397,4.57344069 C8.64282601,4.70104917 8.62920179,4.8394927 8.60597039,4.99710955 L8.60420213,5.00900443 C8.59909404,5.04287165 8.59375758,5.07200624 8.59216335,5.07458578 C8.59008829,5.07794559 8.57512309,5.07693932 8.53977432,5.07101146 L8.52783466,5.06900378 C8.47807761,5.06079862 8.4050824,5.05114795 8.33054557,5.0426504 L8.31717331,5.04114016 L8.30825384,5.04014869 L8.29934026,5.03917067 C8.25702778,5.03455854 8.21519315,5.03043464 8.17780407,5.0272742 L8.17193806,5.02678326 C8.01433552,5.01372632 7.89511593,5.00899027 7.72377362,5.00897714 L7.57106907,5.00896401 L7.57410242,4.98379558 C7.59001762,4.85174666 7.59493312,4.65778777 7.58528158,4.54280086 C7.55757879,4.21271795 7.45226531,3.89314888 7.27607315,3.60451729 L7.24838787,3.55917034 L7.24386193,3.47539229 C7.22301809,3.08935229 7.16678525,2.68066946 7.08856613,2.34669967 L7.08572597,2.33465856 C7.03892753,2.13763035 6.97250875,1.92450678 6.94943941,1.89822884 L6.94763657,1.89620983 C6.91856298,1.86421539 6.89253233,1.86354154 6.80120425,1.89158761 L6.79835878,1.89246417 C6.50145006,1.98419983 6.16097587,2.15268826 5.83812396,2.36765732 L5.73882902,2.43376932 L5.69149048,2.41882584 C5.45935874,2.34553974 5.20554275,2.29652914 4.93287014,2.27233243 C4.83189,2.26337246 4.45326923,2.26489132 4.35071333,2.27466543 C4.09129026,2.29940053 3.87312152,2.34134646 3.6459972,2.41015477 L3.56939762,2.43336225 L3.49717516,2.38462303 C3.17228676,2.16536864 2.80361018,1.98141249 2.51242601,1.89307208 L2.5036261,1.89042443 C2.43339522,1.86947554 2.41147461,1.86682738 2.38852976,1.8765227 L2.38656886,1.87737385 C2.35494416,1.89148112 2.34275936,1.91627298 2.30292207,2.0437549 C2.17642333,2.44855523 2.09278972,2.95802997 2.06333609,3.50322201 L2.06038154,3.55792286 L2.0212676,3.62359277 C1.944366,3.75270465 1.86131017,3.93466585 1.81891778,4.06692488 C1.73084577,4.34169413 1.70056048,4.61785094 1.726937,4.90571653 L1.7295029,4.93281556 C1.73224551,4.96089085 1.73487979,4.98512835 1.73600639,4.99216463 L1.73869394,5.00896401 L1.58602879,5.00897714 C1.3100634,5.00899872 1.05677048,5.02703154 0.813623775,5.06397693 L0.79540004,5.06676346 C0.753074173,5.07313918 0.718522252,5.07699214 0.717039396,5.07543494 C0.713747802,5.07196826 0.690163886,4.9110785 0.680669915,4.82731358 C0.639975842,4.46826728 0.651400122,4.07893131 0.713437027,3.71053111 C0.900261212,2.6011591 1.559591,1.61108109 2.51451199,1.00597067 C3.09013375,0.641207854 3.73741333,0.433452287 4.42950147,0.391322518 Z" id="Maoyan" fill="#DF1839"></path>
    </g>
</svg>

<svg viewBox="0 0 9 9" xmlns="http://www.w3.org/2000/svg"><path d="m6.949 6.239.05.009c.154.028.358.095.57.188l.005.003c.042.019.097.044.151.071l.02.01c.11.054.212.11.212.115a3.993 3.993 0 0 1-2.519 1.67 3.999 3.999 0 0 1-3.987-1.528l-.004-.006-.011-.015a1.053 1.053 0 0 1-.084-.124 4.8 4.8 0 0 1 .371-.188l.004-.002c.203-.09.42-.163.578-.193l.028-.006c.031-.005.03-.004.035.004.005.009.055.057.108.105l.016.014c.032.03.063.057.084.075.635.53 1.515.785 2.414.702.733-.068 1.423-.375 1.897-.844l.062-.06Zm.31-.396.028-.045c.009-.013.011-.014.026-.012l.08.009c.235.027.503.082.803.166l.12.034-.012.024a4.41 4.41 0 0 1-.079.163l-.015.03a2.228 2.228 0 0 1-.092.17.06.06 0 0 1-.015-.006l-.006-.003-.009-.005a2.232 2.232 0 0 1-.044-.023l-.01-.005a4.34 4.34 0 0 0-.776-.332l-.02-.006a.732.732 0 0 1-.065-.021c-.002-.001.001-.007.006-.016l.002-.003a.354.354 0 0 1 .012-.02l.005-.006a1.44 1.44 0 0 0 .006-.008l.008-.012a2.6 2.6 0 0 0 .047-.073Zm-5.254-.059c.005 0 .017.016.037.047l.005.007c.014.024.036.057.052.081l.012.017a.186.186 0 0 1 .026.045 4.22 4.22 0 0 0-.52.19l-.01.005c-.088.038-.262.124-.345.17l-.01.006a.267.267 0 0 1-.062.028 4.629 4.629 0 0 1-.182-.354l-.014-.031.069-.02c.31-.091.633-.157.911-.187l.031-.004ZM5.108 3.95a.98.98 0 0 1 1.729.816.983.983 0 0 1-.855.755h-.006a.82.82 0 0 1-.066.004h-.03l-.003.043a.657.657 0 0 1-.52.597.823.823 0 0 1-.253.002.693.693 0 0 1-.242-.1.803.803 0 0 1-.175-.174l-.016-.024a.764.764 0 0 0-.013-.02l-.001-.001c-.002-.002-.014.014-.029.035l-.003.006a.66.66 0 0 1-.41.276.82.82 0 0 1-.254.002.69.69 0 0 1-.241-.1.821.821 0 0 1-.176-.175.663.663 0 0 1-.111-.323l-.003-.044H3.4a.989.989 0 0 1-.678-.3.976.976 0 0 1-.128-1.193.99.99 0 0 1 .724-.458.977.977 0 0 1 .799.282.98.98 0 0 1 .275.534.98.98 0 0 1-.581 1.057l-.01.004c-.06.026-.087.044-.108.074v.002a.192.192 0 0 0-.037.121.268.268 0 0 0 .033.153c.025.05.067.096.123.133l.008.005a.492.492 0 0 0 .654-.117l.002-.003a.516.516 0 0 0 .07-.139c0-.004-.011-.01-.027-.016h-.002a.305.305 0 0 1-.103-.07.202.202 0 0 1-.044-.093c-.008-.068.04-.141.122-.181a.32.32 0 0 1 .16-.036h.003c.067 0 .107.008.163.036a.207.207 0 0 1 .12.143.097.097 0 0 1-.003.054.225.225 0 0 1-.018.048.261.261 0 0 1-.132.1l-.027.01.011.03a.49.49 0 0 0 .731.227.32.32 0 0 0 .154-.254c.004-.078-.014-.132-.06-.177L5.591 5.5a.2.2 0 0 0-.073-.045l-.004-.001a.98.98 0 0 1-.602-1.037.998.998 0 0 1 .195-.467Zm2.456 1.326h.084l.061.002c.09.001.155.003.218.006h.012l.011.001.018.001.161.012h.006l.114.01.022.003c.13.014.256.03.261.035.005.004-.026.12-.063.239l-.003.008-.005.015-.005.016-.036.11-.072-.021a7.02 7.02 0 0 0-.599-.142l-.014-.003a6.877 6.877 0 0 0-.076-.014l-.022-.004-.012-.001-.042-.007a2.512 2.512 0 0 0-.136-.02c-.006 0-.011-.003-.013-.005a.181.181 0 0 1 .015-.049l.002-.006.021-.058.002-.005.004-.01a2.68 2.68 0 0 0 .007-.02l.003-.01.018-.057.007-.02v-.001c.002-.003.013-.005.051-.005Zm-6.031.002h.032c.119-.003.23-.001.231.003l.004.011.018.056.003.01.037.106.002.004c.01.025.016.047.015.05-.001.001-.006.003-.01.003h-.002c-.032 0-.31.05-.466.083l-.012.002c-.055.012-.129.03-.202.048l-.038.01a2.779 2.779 0 0 0-.252.07.911.911 0 0 1-.055-.156l-.006-.019a1.24 1.24 0 0 1-.055-.213 2.09 2.09 0 0 1 .211-.03l.019-.002.016-.001a5.9 5.9 0 0 1 .07-.008l.022-.002a5.851 5.851 0 0 1 .418-.025Zm1.853-1.296a.177.177 0 0 0-.108.098l-.01.025v.884l.01.025a.18.18 0 0 0 .083.088l.004.002c.021.01.03.012.058.012H3.441a.104.104 0 0 0 .058-.013.183.183 0 0 0 .08-.08l.012-.025v-.902l-.011-.025a.185.185 0 0 0-.081-.08.195.195 0 0 0-.113-.01Zm2.445 0a.172.172 0 0 0-.1.087l-.012.023v.91l.014.028c.018.033.046.059.079.075l.004.001c.018.008.028.01.058.01h.009a.117.117 0 0 0 .062-.011.172.172 0 0 0 .078-.075l.015-.028v-.91l-.015-.027a.157.157 0 0 0-.138-.088.177.177 0 0 0-.054.005ZM4.43.392 4.436.39c.05-.003.15-.003.251-.002h.037c.101.002.198.004.242.008h.002c.431.038.806.126 1.188.28a4.009 4.009 0 0 1 2.348 2.625c.08.283.132.603.144.884v.023c.002.04.004.058.006.05v-.001a.946.946 0 0 1 .003.11v.045a.728.728 0 0 1-.003.093.236.236 0 0 0-.006.067 3.925 3.925 0 0 1-.042.424l-.002.012a.592.592 0 0 1-.012.066c-.002.003-.017.002-.052-.004l-.012-.002a4.378 4.378 0 0 0-.197-.026l-.014-.002h-.009L8.3 5.038a5.146 5.146 0 0 0-.121-.012h-.006a4.938 4.938 0 0 0-.448-.018H7.57l.003-.025c.016-.132.02-.326.011-.441a2.141 2.141 0 0 0-.309-.938l-.028-.046-.004-.084a6.774 6.774 0 0 0-.155-1.128l-.003-.012c-.047-.197-.113-.41-.137-.437l-.001-.002c-.03-.032-.055-.032-.147-.004h-.003c-.297.092-.637.26-.96.476l-.1.066-.047-.015a3.568 3.568 0 0 0-.758-.147 6.036 6.036 0 0 0-.582.003c-.26.024-.478.066-.705.135l-.077.023-.072-.048a3.96 3.96 0 0 0-.985-.492l-.008-.003c-.07-.02-.093-.023-.115-.013h-.002c-.032.014-.044.04-.084.167-.127.405-.21.914-.24 1.46l-.003.054-.039.066a2.082 2.082 0 0 0-.294 1.282l.003.027.006.06.003.016h-.153c-.276 0-.53.018-.772.055l-.019.003a.517.517 0 0 1-.078.008A4.082 4.082 0 0 1 .713 3.71 4.003 4.003 0 0 1 4.43.392Z" fill="#DF1839" fill-rule="evenodd"/></svg>
